X: 020577
T: Brown Bog
S: Treoir 
C: Noel Strange
Z: B.Black
M: 6/8
L: 1/8
R: jig 
K: D
A | dcd AFD | DED FED | dcd fed | Bcd ecA |
dcd AFD | DED FED | fag fed | cBc d2 :|
A | f2 f gfg | afd cBA | dcd fed | cee e2 A |
f2 f gfg | afd cBA | dcd AFD | EDD D2 :|
